svg/opt/object-access.svg

<svg xmlns="http://www.w3.org/2000/svg" viewBox="0 0 24 24"><path d="M7,5C3.14,5,0,8.14,0,12s3.14,7,7,7c2.72,0,5.17-1.58,6.32-4h2.68v4h6v-4h2v-6H13.32c-1.15-2.42-3.6-4-6.32-4Zm15,8h-2v4h-2v-4h-6.06l-.23,.67c-.7,1.99-2.6,3.33-4.71,3.33-2.76,0-5-2.24-5-5s2.24-5,5-5c2.11,0,4.01,1.34,4.71,3.33l.23,.67h10.06v2ZM7,8c1.1,0,2,.9,2,2s-.9,2-2,2-2-.9-2-2,.9-2,2-2Zm-3.39,6.1c.87-.74,2.45-1.1,3.39-1.1s2.52,.37,3.39,1.11c-.71,1.13-1.95,1.89-3.39,1.89s-2.68-.76-3.39-1.9Zm0,0c.87-.74,2.45-1.1,3.39-1.1s2.52,.37,3.39,1.11c-.71,1.13-1.95,1.89-3.39,1.89s-2.68-.76-3.39-1.9Z"/><path fill="none" stroke="#000" stroke-miterlimit="10" stroke-width=".5" d="M-12 -60H468V420H-12z"/></svg>

<svg xmlns="http://www.w3.org/2000/svg" viewBox="0 0 24 24"><path d="M7,5a7,7,0,1,0,6.3,10H16v4h6V15h2V9H13.3A7,7,0,0,0,7,5Zm15,8H20v4H18V13H11.9l-.2.7A5,5,0,0,1,7,17,5,5,0,0,1,7,7a5,5,0,0,1,4.7,3.3l.2.7H22ZM7,8a2,2,0,1,1-2,2A2,2,0,0,1,7,8ZM3.6,14.1A6.5,6.5,0,0,1,7,13a6.5,6.5,0,0,1,3.4,1.1A4.1,4.1,0,0,1,7,16,4.1,4.1,0,0,1,3.6,14.1Zm0,0A6.5,6.5,0,0,1,7,13a6.5,6.5,0,0,1,3.4,1.1A4.1,4.1,0,0,1,7,16,4.1,4.1,0,0,1,3.6,14.1Z"/><path fill="none" stroke="#000" stroke-miterlimit="10" stroke-width=".5" d="M-12 -60H468V420H-12z"/></svg>
